!!!OTL: Ich stehe auf hohen Bergen (Band 1), S. 119
!!!id: P0812
**kern
*clefG2
*k[f#c#]
*A:
{8a
=1
8.a
16a
8a
=2
4b
8cc#
=3
4dd
8cc#
=4
4b}
=5
{16cc#
16b
=6
8a
8.a
16a
=7
8b
8dd
8cc#
=8
4dd}
=9
{16a
16a
=10
8dd
8dd
8a
=11
8b
8b
16a
16g
=12
[4f#
16f#]
16ee
=13
4e}
8r
=14
{4b
8dd
=15
8cc#
8cc#
8b
=16
8a
8f#
8g#
=17
4a}
==
*-
!!!minrhy: 16
!!!meters: 3/8 ]  ZZ[4
!!!cut: Ich stehe auf hohen Bergen (Band 1), S. 119
!!!reg: Lothringen
!!!trd: PINCK, Louis: Verklingende Weisen, Bd 1, Metz 1928
!!!rhy1: X_  X_.XX_  X__X_  X__X_  X__
!!!rhy2: XX  X_X_.X  X_X_X_  X__
!!!key: P0812  16  A 3/8 ]  ZZ[4
!!!mod: ACHTTONSKALA DUR ?]  AMBITUS[8
!!!kad: 24-51
!!!akz: 1242_124_42-6-5_2311_
!!!fot: 'a__aw_b__c__
!!!for: 'a__b__c__d__
!!!fok: '^a_Va_^d_~d_
!! PHRAS[VORWIEGEND AUFTAKTIG]
!!!fkt: verbotene Liebe, Tod
!! LOTH VKL
!! PR[19] 2K[0] 2G[5] 3K[5] 3G[5] 4A[5] 4Ü[0] 5A[5] 6K[0] 6G[0]
!! 7K[0] 7G[0] 8A[0] MEHR[0] SI[27] ABS[37] SR[5] SP[22]
!! ST[16] 2k[11] 2g[38] 3k[0] 3g[0] 4d[5] 4ü[0] 5d[0] 6k[0] 6g[0]
!! 7k[0] 7g[0] 8d[0] mehr[0] si[54] dm[-27] sr[49] sp[5]
!! 1F[10] 2F[70] 3F[15] 4F[0] LF[0] 2P[0] 3P[5] 4P[0] TRI[0] DF[4] AB[40]
!! TF[0] U3K[0] U3[0] U4[0] U4Ü[0] U5[0] U6K[0] U6[0] U7K[0] U7[0]
!! N1[0] N2K[0] N2[5] N3K[0] N3[5] N4[5] N4Ü[0] N5[26] N6K[0] N6[26]
!!!n7k: 0] N7[16] O1[16] O2K[0] O2[0] O3K[0] O3[0] HÖ[0
